img/Logo_PHD.svg

<svg width="78" height="78" viewBox="0 0 78 78" fill="none" xmlns="http://www.w3.org/2000/svg">
<g clip-path="url(#clip0_77_4809)">
<path d="M58.7852 76.5988C45.3675 77.5674 31.9497 77.5674 18.5361 76.5988C9.74828 75.8846 1.44069 67.577 0.726503 58.7892C-0.242168 45.3714 -0.242168 31.9537 0.726503 18.536C1.44069 9.74405 9.74417 1.44057 18.5361 0.726381C31.9538 -0.24229 45.3716 -0.24229 58.7852 0.726381C67.5771 1.44057 75.8806 9.74816 76.5948 18.536C77.5635 31.9537 77.5635 45.3714 76.5948 58.7851C75.8806 67.5729 67.573 75.8805 58.7852 76.5947V76.5988Z" fill="url(#paint0_linear_77_4809)"/>
<g clip-path="url(#clip1_77_4809)">
<path d="M23.7097 40.5297C25.657 39.9308 26.5226 37.1266 25.643 34.2663C24.7634 31.4059 22.4717 29.5726 20.5244 30.1714C18.5771 30.7702 17.7116 33.5744 18.5912 36.4348C19.4707 39.2951 21.7624 41.1285 23.7097 40.5297Z" fill="white"/>
<path d="M33.2833 33.3639C35.2771 32.945 36.3946 30.2314 35.7794 27.3027C35.1642 24.3741 33.0491 22.3396 31.0554 22.7584C29.0616 23.1772 27.9441 25.8909 28.5593 28.8195C29.1745 31.7481 31.2896 33.7827 33.2833 33.3639Z" fill="white"/>
<path d="M49.0758 28.8201C49.691 25.8914 48.5735 23.1778 46.5797 22.7589C44.5859 22.3401 42.4709 24.3747 41.8557 27.3033C41.2404 30.2319 42.358 32.9456 44.3517 33.3644C46.3455 33.7833 48.4605 31.7487 49.0758 28.8201Z" fill="white"/>
<path d="M59.3417 36.4353C60.2213 33.5749 59.3557 30.7707 57.4084 30.1719C55.4611 29.5731 53.1695 31.4064 52.2899 34.2668C51.4103 37.1271 52.2759 39.9314 54.2232 40.5302C56.1705 41.129 58.4621 39.2956 59.3417 36.4353Z" fill="white"/>
<path d="M39.2264 42.8782L37.6786 41.3755C37.2593 40.9558 36.7615 40.623 36.2135 40.3958C35.6656 40.1687 35.0782 40.0518 34.485 40.0518C33.8918 40.0518 33.3044 40.1687 32.7565 40.3958C32.2085 40.623 31.7107 40.9558 31.2914 41.3755C30.8718 41.7947 30.5389 42.2926 30.3118 42.8405C30.0847 43.3885 29.9678 43.9758 29.9678 44.569C29.9678 45.1622 30.0847 45.7496 30.3118 46.2976C30.5389 46.8456 30.8718 47.3434 31.2914 47.7626L32.7992 49.2704L39.1864 55.6575L45.5735 49.2704L47.0813 47.7626C47.5009 47.3434 47.8338 46.8456 48.0609 46.2976C48.288 45.7496 48.4049 45.1622 48.4049 44.569C48.4049 43.9758 48.288 43.3885 48.0609 42.8405C47.8338 42.2926 47.5009 41.7947 47.0813 41.3755C46.662 40.9558 46.1642 40.623 45.6162 40.3958C45.0682 40.1687 44.4809 40.0518 43.8877 40.0518C43.2945 40.0518 42.7072 40.1687 42.1592 40.3958C41.6113 40.623 41.1134 40.9558 40.6942 41.3755L39.2264 42.8782Z" fill="white"/>
</g>
</g>
<defs>
<linearGradient id="paint0_linear_77_4809" x1="32.3561" y1="31.4694" x2="83.3385" y2="89.6019" gradientUnits="userSpaceOnUse">
<stop stop-color="#EEC643"/>
<stop offset="1" stop-color="#9E883F"/>
</linearGradient>
<clipPath id="clip0_77_4809">
<rect width="77.3213" height="77.3213" fill="white"/>
</clipPath>
<clipPath id="clip1_77_4809">
<rect width="43.936" height="33.6601" fill="white" transform="translate(17 22)"/>
</clipPath>
</defs>
</svg>

<svg xmlns="http://www.w3.org/2000/svg" width="78" height="78" fill="none"><g clip-path="url(#a)"><path fill="url(#b)" d="M58.785 76.599a279 279 0 0 1-40.249 0c-8.788-.714-17.095-9.022-17.81-17.81a279 279 0 0 1 0-40.253C1.442 9.744 9.745 1.441 18.537.726a279 279 0 0 1 40.25 0c8.791.715 17.095 9.022 17.809 17.81a279 279 0 0 1 0 40.25c-.714 8.787-9.022 17.094-17.81 17.809z"/><g fill="#fff" clip-path="url(#c)"><path d="M23.71 40.53c1.947-.6 2.813-3.403 1.933-6.264-.88-2.86-3.171-4.693-5.119-4.095-1.947.6-2.812 3.403-1.933 6.264.88 2.86 3.171 4.694 5.119 4.095M33.283 33.364c1.994-.419 3.112-3.133 2.496-6.061-.615-2.929-2.73-4.963-4.724-4.545-1.993.42-3.11 3.133-2.496 6.062.615 2.928 2.73 4.963 4.724 4.544M49.076 28.82c.615-2.929-.502-5.642-2.496-6.061s-4.11 1.616-4.724 4.544c-.616 2.929.502 5.643 2.496 6.061 1.994.42 4.109-1.615 4.724-4.544M59.342 36.435c.88-2.86.014-5.664-1.934-6.263s-4.239 1.234-5.118 4.095-.014 5.664 1.933 6.263 4.24-1.234 5.119-4.095M39.226 42.878l-1.547-1.502a4.515 4.515 0 0 0-7.711 3.193 4.51 4.51 0 0 0 1.323 3.194L32.8 49.27l6.387 6.387 6.388-6.387 1.507-1.507a4.513 4.513 0 0 0 0-6.387 4.515 4.515 0 0 0-6.387 0z"/></g></g><defs><clipPath id="a"><path fill="#fff" d="M0 0h77.321v77.321H0z"/></clipPath><clipPath id="c"><path fill="#fff" d="M17 22h43.936v33.66H17z"/></clipPath><linearGradient id="b" x1="32.356" x2="83.338" y1="31.469" y2="89.602" gradientUnits="userSpaceOnUse"><stop stop-color="#EEC643"/><stop offset="1" stop-color="#9E883F"/></linearGradient></defs></svg>
